Newaita/actions/24/format-text-symbol.svg

<?xml version="1.0" encoding="UTF-8"?>
<svg xmlns="http://www.w3.org/2000/svg" xmlns:xlink="http://www.w3.org/1999/xlink" width="24pt" height="24pt" viewBox="0 0 24 24" version="1.1">
<g id="surface1">
<path style=" stroke:none;fill-rule:nonzero;fill:rgb(25.882354%,25.882354%,25.882354%);fill-opacity:1;" d="M 11.90625 4.652344 C 8.609375 4.652344 5.953125 6.644531 5.953125 9.117188 L 7.9375 9.117188 C 7.9375 7.742188 9.707031 6.636719 11.90625 6.636719 C 14.105469 6.636719 15.875 7.742188 15.875 9.117188 L 15.875 15.070312 C 15.875 16.445312 14.105469 17.550781 11.90625 17.550781 C 9.980469 17.550781 8.382812 16.703125 8.015625 15.566406 L 5.988281 15.566406 C 6.316406 17.804688 8.832031 19.535156 11.90625 19.535156 C 15.207031 19.535156 17.859375 17.546875 17.859375 15.070312 L 17.859375 9.117188 C 17.859375 6.644531 15.207031 4.652344 11.90625 4.652344 Z M 11.90625 4.652344 "/>
</g>
</svg>

<svg xmlns="http://www.w3.org/2000/svg" width="32" height="32" viewBox="0 0 24 24"><path d="M11.906 4.652c-3.297 0-5.953 1.993-5.953 4.465h1.984c0-1.375 1.77-2.48 3.97-2.48 2.198 0 3.968 1.105 3.968 2.48v5.953c0 1.375-1.77 2.48-3.969 2.48-1.926 0-3.523-.847-3.89-1.984H5.988c.328 2.239 2.844 3.97 5.918 3.97 3.301 0 5.953-1.99 5.953-4.466V9.117c0-2.472-2.652-4.465-5.953-4.465zm0 0" fill="#78909c"/></svg>
